X: 10760
T: Dr. Kielly-O
R: jig
M: 6/8
K: Dmajor
|:d3 d2A|~B2A ABc|d3 ede|f2d def|
g3 f3|efe d2A|B2A FGA|1 ~B2A ABc:|2 ~B2A A2^g||
K: Amix
|:a3 f3|gfg efg|a3 f3|efe A2^g|
a3 f3|efe d2A|B2A FGA|1 ~B2A A2^g:|2 B2A ABc||

